assets/Person gesturing ok/Medium/Flat/person_gesturing_ok_flat_medium.svg

<svg width="32" height="32" viewBox="0 0 32 32" fill="none" xmlns="http://www.w3.org/2000/svg">
<path d="M15 2.62C15 2.22 14.6884 2 14.2979 2L12.5 2.1C12.5 2.1 12.3817 2 12 2C10.8939 2 9.56061 2.96641 9 3.5L7.5 5L10 6.5C10.8678 7.07852 11.4837 6.73665 12.1881 6.3457C12.7013 6.06088 13.2614 5.75 14 5.75C15 5.75 15.2 5.55243 15.2 4.85C15.4 4.85 15.9 4.5 15.6 3.9C15.6 3.9 16.0563 3.72518 15.9 3.1C15.8463 2.88511 15.5742 2.62 15 2.62Z" fill="#C68D7B"/>
<path d="M16.9326 2.62C16.9326 2.22 17.2443 2 17.6347 2L19.4326 2.1C19.4326 2.1 19.5509 2 19.9326 2C21.0387 2 22.372 2.96641 22.9326 3.5L24.4326 5L21.9326 6.5C21.0648 7.07852 20.4489 6.73665 19.7445 6.3457C19.2314 6.06088 18.6712 5.75 17.9326 5.75C16.9326 5.75 16.7326 5.55243 16.7326 4.85C16.5326 4.85 16.0326 4.5 16.3326 3.9C16.3326 3.9 15.8763 3.72518 16.0326 3.1C16.0863 2.88511 16.3584 2.62 16.9326 2.62Z" fill="#C68D7B"/>
<path d="M10.9432 2.51785C10.9531 2.55093 10.9879 2.56976 11.021 2.5599C11.8225 2.28995 12.343 2.14083 12.5031 2.10001C12.5031 2.10001 12.4749 2.0762 12.4017 2.05182C12.3635 2.05953 12.3168 2.07018 12.2639 2.08302C12.1515 2.11032 12.0092 2.14801 11.8573 2.18974C11.5534 2.27322 11.2094 2.37336 10.9853 2.4401C10.9522 2.44996 10.9334 2.48476 10.9432 2.51785Z" fill="#A9715F"/>
<path d="M14.4053 4.46251C14.542 4.46276 14.7066 4.48695 14.8472 4.55068C15.0656 4.64967 15.2031 4.7893 15.2031 4.85001C15.2215 4.85001 15.2424 4.84705 15.265 4.84122C15.2648 4.84003 15.2649 4.83544 15.2651 4.83033C15.2653 4.82342 15.2655 4.81552 15.265 4.81392C15.2085 4.60002 15.0616 4.51062 14.8988 4.43683C14.7368 4.3634 14.5524 4.3375 14.4031 4.3375L12.9987 4.43767C12.9642 4.44013 12.9383 4.47003 12.9408 4.50446C12.9432 4.53889 12.9731 4.56481 13.0076 4.56235L14.4053 4.46251Z" fill="#A9715F"/>
<path d="M15.3075 3.63583C15.1985 3.58097 15.0785 3.56251 15.0031 3.56251H13.0031C12.9686 3.56251 12.9406 3.53453 12.9406 3.50001C12.9406 3.46549 12.9686 3.43751 13.0031 3.43751H15.0031C15.0944 3.43751 15.2343 3.45905 15.3637 3.52419C15.4909 3.5882 15.6116 3.69664 15.66 3.87048C15.6261 3.89121 15.6031 3.90001 15.6031 3.90001C15.6031 3.86535 15.544 3.76399 15.3075 3.63583Z" fill="#A9715F"/>
<path d="M11.9438 3.01978C11.9548 3.05252 11.9901 3.07022 12.0229 3.05931C13.5531 2.61187 14.6473 2.58001 15.0031 2.62001C15.0031 2.59852 15.0022 2.57755 15.0004 2.5571C14.4357 2.30002 12.4869 2.77287 11.9834 2.94072C11.9506 2.95164 11.9329 2.98703 11.9438 3.01978Z" fill="#A9715F"/>
<path d="M20.9925 2.51785C20.9826 2.55093 20.9478 2.56976 20.9147 2.5599C20.1132 2.28995 19.5927 2.14083 19.4326 2.10001C19.4326 2.10001 19.4608 2.0762 19.5339 2.05182C19.5722 2.05953 19.6189 2.07018 19.6718 2.08302C19.7842 2.11032 19.9265 2.14801 20.0784 2.18974C20.3823 2.27322 20.7263 2.37336 20.9504 2.4401C20.9835 2.44996 21.0023 2.48476 20.9925 2.51785Z" fill="#A9715F"/>
<path d="M17.5304 4.46251C17.3937 4.46276 17.2291 4.48695 17.0885 4.55068C16.8701 4.64967 16.7326 4.7893 16.7326 4.85001C16.7142 4.85001 16.6933 4.84705 16.6707 4.84122C16.6709 4.84003 16.6707 4.83544 16.6706 4.83033C16.6704 4.82341 16.6702 4.81552 16.6707 4.81392C16.7272 4.60002 16.8741 4.51062 17.0369 4.43683C17.1989 4.3634 17.3833 4.3375 17.5326 4.3375L18.937 4.43767C18.9715 4.44013 18.9974 4.47003 18.9949 4.50446C18.9925 4.53889 18.9626 4.56481 18.9281 4.56235L17.5304 4.46251Z" fill="#A9715F"/>
<path d="M16.6282 3.63583C16.7371 3.58097 16.8572 3.56251 16.9326 3.56251H18.9326C18.9671 3.56251 18.9951 3.53453 18.9951 3.50001C18.9951 3.46549 18.9671 3.43751 18.9326 3.43751H16.9326C16.8413 3.43751 16.7013 3.45905 16.572 3.52419C16.4448 3.5882 16.3241 3.69664 16.2757 3.87048C16.3096 3.89121 16.3326 3.90001 16.3326 3.90001C16.3326 3.86535 16.3917 3.76399 16.6282 3.63583Z" fill="#A9715F"/>
<path d="M19.9919 3.01978C19.9809 3.05252 19.9455 3.07022 19.9128 3.05931C18.3825 2.61187 17.2884 2.58001 16.9326 2.62001C16.9326 2.59852 16.9335 2.57755 16.9353 2.5571C17.5 2.30002 19.4488 2.77287 19.9523 2.94072C19.9851 2.95164 20.0028 2.98703 19.9919 3.01978Z" fill="#A9715F"/>
<path d="M25.4703 6.26998L22.1103 8.35998L21.2303 6.92998C21.1403 6.77998 21.1803 6.58998 21.3303 6.49998L24.1603 4.73998C24.3103 4.64998 24.5003 4.68998 24.5903 4.83998L25.4703 6.26998Z" fill="#F95725"/>
<path d="M6.54028 6.27997L9.89028 8.35997L10.7803 6.93997C10.8703 6.78997 10.8303 6.59997 10.6803 6.50997L7.85028 4.74997C7.70028 4.65997 7.51028 4.69997 7.42028 4.84997L6.54028 6.27997Z" fill="#F95725"/>
<path d="M28.6703 9.80077L26.3103 6.0072C26.0003 5.51066 25.3403 5.35177 24.8403 5.65963L22.0003 7.39751C21.5003 7.70537 21.3403 8.3608 21.6503 8.85734L24.0103 12.6509C24.6503 13.6837 24.7003 14.9946 24.1303 16.077L20.8603 22.2639C20.7738 22.4304 20.6405 22.562 20.481 22.6478C19.1617 21.9178 17.6318 21.5 16 21.5C14.3705 21.5029 12.8426 21.9205 11.5246 22.6486C11.366 22.5629 11.2325 22.4309 11.1403 22.2639L7.8703 16.077C7.3003 15.0045 7.3503 13.6837 7.9903 12.6509L10.3503 8.85734C10.6603 8.3608 10.5003 7.70537 10.0003 7.39751L7.1603 5.65963C6.6603 5.35177 6.0003 5.50073 5.6903 6.0072L3.3303 9.80077C1.6703 12.4622 1.5603 15.8387 3.0203 18.6094L6.6303 25.4318C6.9103 25.9681 7.5 26.8942 7.5 27.5C7.5 27.5 7 28.75 7.0014 30H24.9986C24.9986 28.75 24.5 27.5 24.5 27.5C24.5 26.9042 25.1203 25.9284 25.4003 25.3921L28.9803 18.6193C30.4403 15.8387 30.3303 12.4622 28.6703 9.80077Z" fill="#FF6723"/>
<path d="M9.72913 16.6458C10.0069 16.846 10.3483 16.9696 10.7129 16.9814L10.8113 18.5708C10.875 19.03 11.0023 19.4597 11.1875 19.8541C10.3078 19.495 9.72913 18.6297 9.72913 17.6583V16.6458Z" fill="#593B39"/>
<path d="M22.2708 16.6458C21.993 16.846 21.6516 16.9696 21.287 16.9814L21.1886 18.5708C21.125 19.03 20.9977 19.4597 20.8125 19.8541C21.6921 19.495 22.2708 18.6297 22.2708 17.6583V16.6458Z" fill="#593B39"/>
<path d="M16 24.5C14.8996 24.5 14 23.6591 14 22.6136V20.3864C14 19.3485 14.8916 18.5 16 18.5C17.1004 18.5 18 19.3409 18 20.3864V22.6136C17.992 23.6591 17.1004 24.5 16 24.5Z" fill="#B87A66"/>
<path d="M12.5 15.3333C12.5 16.2998 11.7165 17.0833 10.75 17.0833C9.7835 17.0833 9 16.2998 9 15.3333C9 14.3668 9.7835 13.5833 10.75 13.5833C11.7165 13.5833 12.5 14.3668 12.5 15.3333Z" fill="#BB806E"/>
<path d="M23 15.3333C23 16.2998 22.2165 17.0833 21.25 17.0833C20.2835 17.0833 19.5 16.2998 19.5 15.3333C19.5 14.3668 20.2835 13.5833 21.25 13.5833C22.2165 13.5833 23 14.3668 23 15.3333Z" fill="#BB806E"/>
<path d="M17.2051 7.3125H14.7861C12.0757 7.3125 10.0297 9.58166 10.3445 12.3933L10.7525 18.6291C11.0323 20.7525 12.8393 22.3333 14.9785 22.3333H16.0044H17.0303C19.1695 22.3333 20.9765 20.7525 21.2563 18.6291L21.6468 12.3933C22.0082 9.70416 19.9156 7.3125 17.2051 7.3125Z" fill="#C68D7B"/>
<path d="M11.9253 14.9642C12.0923 14.3068 12.6913 13.8166 13.3997 13.8166C14.1369 13.8166 14.7531 14.3414 14.8914 15.0392C14.9201 15.1949 14.7992 15.3333 14.6437 15.3333H12.2191C12.0232 15.3333 11.8793 15.1545 11.9253 14.9642Z" fill="white"/>
<path d="M20.0747 14.9642C19.9076 14.3068 19.3087 13.8166 18.6003 13.8166C17.8573 13.8166 17.2469 14.3414 17.1086 15.0392C17.0798 15.1949 17.2008 15.3333 17.3563 15.3333H19.7809C19.9767 15.3333 20.1207 15.1545 20.0747 14.9642Z" fill="white"/>
<path d="M12.6509 15.0748C12.6509 14.5348 13.0886 14.1039 13.6243 14.1039C14.1599 14.1039 14.5918 14.5348 14.5918 15.0748C14.5918 15.1667 14.5803 15.2529 14.5573 15.3333H12.6855C12.6625 15.2472 12.6509 15.1667 12.6509 15.0748Z" fill="#7D4533"/>
<path d="M19.349 15.0748C19.349 14.5348 18.9113 14.1039 18.3757 14.1039C17.8401 14.1039 17.4024 14.5348 17.4081 15.0748C17.4081 15.1667 17.4197 15.2529 17.4427 15.3333H19.3145C19.3375 15.2472 19.349 15.1667 19.349 15.0748Z" fill="#7D4533"/>
<path d="M13.6244 14.5233C13.9296 14.5233 14.1773 14.7703 14.1773 15.0748C14.1773 15.1667 14.1542 15.2529 14.1139 15.3333H13.1348C13.0945 15.2529 13.0715 15.1667 13.0715 15.0748C13.0715 14.7703 13.3191 14.5233 13.6244 14.5233Z" fill="black"/>
<path d="M18.3699 14.5233C18.0647 14.5233 17.817 14.7703 17.817 15.0748C17.817 15.1667 17.8401 15.2529 17.8804 15.3333H18.8594C18.8998 15.2529 18.9228 15.1667 18.9228 15.0748C18.9228 14.7703 18.6751 14.5233 18.3699 14.5233Z" fill="black"/>
<path d="M13.463 14.7033C13.463 14.8 13.3857 14.8783 13.2903 14.8783C13.1948 14.8783 13.1175 14.8 13.1175 14.7033C13.1175 14.6067 13.1948 14.5283 13.2903 14.5283C13.3857 14.5283 13.463 14.6067 13.463 14.7033Z" fill="white"/>
<path d="M18.2432 14.7033C18.2432 14.8 18.1658 14.8783 18.0704 14.8783C17.975 14.8783 17.8976 14.8 17.8976 14.7033C17.8976 14.6067 17.975 14.5283 18.0704 14.5283C18.1658 14.5283 18.2432 14.6067 18.2432 14.7033Z" fill="white"/>
<path d="M15.5841 15.0571L15.0061 16.906C14.8882 17.2863 15.1713 17.6666 15.5723 17.6666H16.4276C16.8286 17.6666 17.1118 17.2805 16.9938 16.906L16.4158 15.0571C16.2919 14.6476 15.7139 14.6476 15.5841 15.0571Z" fill="#AB6A55"/>
<path d="M16 18.7723C15.4481 18.7723 14.9293 18.6424 14.4932 18.4151C14.3442 18.3393 14.1842 18.5071 14.278 18.6424C14.6423 19.1945 15.277 19.5625 16 19.5625C16.723 19.5625 17.3577 19.1945 17.722 18.6424C17.8158 18.5017 17.6558 18.3393 17.5068 18.4151C17.0707 18.6424 16.5574 18.7723 16 18.7723Z" fill="#990838"/>
<path d="M21.28 8.3975C21.8395 8.58999 22.3413 8.98083 22.6586 9.54083C23.1662 10.4333 23.0912 11.5008 22.5432 12.2883C22.3529 12.5683 22.2491 12.9008 22.2491 13.2392V13.8963C22.0456 13.7546 21.8107 13.655 21.5568 13.6101L21.6088 12.4925C21.5972 11.6583 20.9397 10.97 20.109 10.935H18.5862C17.5479 10.935 16.6077 10.3225 16.1809 9.36583C16.0713 9.09166 15.8059 8.91083 15.5117 8.91083H14.1274C12.12 8.91083 10.4934 10.5558 10.4934 12.5858V13.602C10.2172 13.6426 9.96194 13.7477 9.7435 13.9015V13.2392C9.7435 12.9008 9.63967 12.5683 9.44932 12.2883C8.93018 11.5242 8.83789 10.4975 9.29358 9.62833C9.61083 9.02749 10.1242 8.60749 10.7068 8.40333C11.3298 8.18166 11.8604 7.76166 12.2123 7.19583C12.6622 6.47833 13.4525 6 14.3581 6C14.71 6 15.0445 6.07583 15.356 6.20417C15.7713 6.385 16.2385 6.385 16.6539 6.20417C16.9596 6.07583 17.2941 6 17.646 6C18.5631 6 19.3649 6.49583 19.8091 7.23083C20.1436 7.785 20.6686 8.1875 21.28 8.3975Z" fill="#593B39"/>
<path d="M20.0997 12.9168C20.202 12.7853 20.1781 12.5957 20.0466 12.4934L20.0447 12.4919L20.0415 12.4895L20.0318 12.4823C20.0238 12.4764 20.013 12.4686 19.9994 12.4592C19.9722 12.4404 19.9336 12.415 19.8846 12.3856C19.7865 12.327 19.6455 12.2519 19.4674 12.1819C19.1113 12.0419 18.6023 11.9203 17.9933 11.9948C17.828 12.015 17.7104 12.1654 17.7306 12.3308C17.7508 12.4961 17.9013 12.6138 18.0666 12.5935C18.5543 12.5339 18.9612 12.631 19.2467 12.7433C19.3894 12.7994 19.5007 12.8589 19.5748 12.9032C19.6117 12.9253 19.6392 12.9436 19.6564 12.9555C19.6651 12.9614 19.6711 12.9658 19.6745 12.9683L19.6775 12.9705C19.809 13.0719 19.9977 13.048 20.0997 12.9168Z" fill="#593B39"/>
<path d="M12.4975 12.9705C12.3661 13.0719 12.1773 13.048 12.0753 12.9168C11.973 12.7853 11.9967 12.5958 12.1282 12.4936L12.1291 12.4929L12.1303 12.4919L12.1335 12.4895L12.1432 12.4823C12.1511 12.4764 12.162 12.4686 12.1756 12.4592C12.2028 12.4404 12.2413 12.415 12.2904 12.3856C12.3884 12.327 12.5295 12.2519 12.7076 12.1819C13.0637 12.0419 13.5726 11.9203 14.1816 11.9948C14.347 12.015 14.4646 12.1654 14.4444 12.3308C14.4242 12.4961 14.2737 12.6138 14.1084 12.5935C13.6207 12.5339 13.2138 12.631 12.9283 12.7433C12.7855 12.7994 12.6743 12.8589 12.6002 12.9032C12.5633 12.9253 12.5358 12.9436 12.5185 12.9555C12.5099 12.9614 12.5039 12.9658 12.5005 12.9683L12.4975 12.9705Z" fill="#593B39"/>
</svg>

<svg xmlns="http://www.w3.org/2000/svg" width="32" height="32" fill="none"><path fill="#C68D7B" d="M15 2.62c0-.4-.312-.62-.702-.62l-1.798.1S12.382 2 12 2c-1.106 0-2.44.966-3 1.5L7.5 5 10 6.5c.868.579 1.484.237 2.188-.154.513-.285 1.073-.596 1.812-.596 1 0 1.2-.198 1.2-.9.2 0 .7-.35.4-.95 0 0 .456-.175.3-.8-.054-.215-.326-.48-.9-.48Z"/><path fill="#C68D7B" d="M16.933 2.62c0-.4.311-.62.702-.62l1.798.1s.118-.1.5-.1c1.106 0 2.439.966 3 1.5l1.5 1.5-2.5 1.5c-.868.579-1.484.237-2.189-.154-.513-.285-1.073-.596-1.811-.596-1 0-1.2-.198-1.2-.9-.2 0-.7-.35-.4-.95 0 0-.457-.175-.3-.8.053-.215.325-.48.9-.48Z"/><path fill="#A9715F" d="M10.943 2.518c.01.033.045.052.078.042.801-.27 1.322-.42 1.482-.46 0 0-.028-.024-.101-.048a14.908 14.908 0 0 0-.544.138c-.305.083-.649.183-.873.25a.063.063 0 0 0-.042.078ZM14.405 4.463c.137 0 .302.024.442.088.219.099.356.238.356.299.019 0 .04-.003.062-.009a.1.1 0 0 1 0-.01v-.017c-.056-.214-.203-.303-.366-.377a1.237 1.237 0 0 0-.496-.1l-1.404.1a.062.062 0 1 0 .009.125l1.397-.1ZM15.307 3.636a.719.719 0 0 0-.304-.073h-2a.063.063 0 0 1 0-.125h2c.091 0 .231.021.36.086a.55.55 0 0 1 .297.346c-.034.021-.057.03-.057.03 0-.035-.059-.136-.296-.264ZM11.944 3.02c.01.033.046.05.079.04 1.53-.448 2.624-.48 2.98-.44 0-.021 0-.042-.003-.063-.564-.257-2.513.216-3.017.384a.063.063 0 0 0-.04.079ZM20.992 2.518a.063.063 0 0 1-.077.042c-.802-.27-1.322-.42-1.482-.46 0 0 .028-.024.1-.048.04.008.086.018.139.031.112.027.255.065.406.107.304.083.648.183.872.25.034.01.052.045.043.078ZM17.53 4.463c-.136 0-.3.024-.442.088-.218.099-.355.238-.355.299a.252.252 0 0 1-.062-.009V4.814c.056-.214.203-.303.366-.377.162-.074.346-.1.496-.1l1.404.1a.062.062 0 1 1-.009.125l-1.398-.1ZM16.628 3.636a.719.719 0 0 1 .305-.073h2a.063.063 0 0 0 0-.125h-2a.843.843 0 0 0-.361.086.55.55 0 0 0-.296.346c.034.021.057.03.057.03 0-.035.059-.136.295-.264ZM19.992 3.02a.063.063 0 0 1-.08.04c-1.53-.448-2.624-.48-2.98-.44l.003-.063c.565-.257 2.514.216 3.017.384.033.01.05.046.04.079Z"/><path fill="#F95725" d="m25.47 6.27-3.36 2.09-.88-1.43a.309.309 0 0 1 .1-.43l2.83-1.76c.15-.09.34-.05.43.1l.88 1.43ZM6.54 6.28l3.35 2.08.89-1.42c.09-.15.05-.34-.1-.43L7.85 4.75a.309.309 0 0 0-.43.1l-.88 1.43Z"/><path fill="#FF6723" d="m28.67 9.8-2.36-3.793a1.075 1.075 0 0 0-1.47-.347L22 7.398c-.5.307-.66.963-.35 1.46l2.36 3.793c.64 1.033.69 2.344.12 3.426l-3.27 6.187a.914.914 0 0 1-.379.384A9.233 9.233 0 0 0 16 21.5a9.268 9.268 0 0 0-4.475 1.149.963.963 0 0 1-.385-.385l-3.27-6.187a3.463 3.463 0 0 1 .12-3.426l2.36-3.794a1.06 1.06 0 0 0-.35-1.46L7.16 5.66a1.066 1.066 0 0 0-1.47.347L3.33 9.801a8.88 8.88 0 0 0-.31 8.808l3.61 6.823c.28.536.87 1.462.87 2.068 0 0-.5 1.25-.499 2.5H25c0-1.25-.499-2.5-.499-2.5 0-.596.62-1.572.9-2.108l3.58-6.773c1.46-2.78 1.35-6.157-.31-8.818Z"/><path fill="#593B39" d="M9.73 16.646c.277.2.618.324.983.335l.098 1.59c.064.459.191.889.377 1.283a2.362 2.362 0 0 1-1.459-2.196v-1.012ZM22.27 16.646c-.277.2-.618.324-.983.335l-.098 1.59c-.064.459-.191.889-.377 1.283a2.362 2.362 0 0 0 1.459-2.196v-1.012Z"/><path fill="#B87A66" d="M16 24.5c-1.1 0-2-.84-2-1.886v-2.228c0-1.037.892-1.886 2-1.886 1.1 0 2 .84 2 1.886v2.228c-.008 1.045-.9 1.886-2 1.886Z"/><path fill="#BB806E" d="M12.5 15.333a1.75 1.75 0 1 1-3.5 0 1.75 1.75 0 0 1 3.5 0ZM23 15.333a1.75 1.75 0 1 1-3.5 0 1.75 1.75 0 0 1 3.5 0Z"/><path fill="#C68D7B" d="M17.205 7.313h-2.419c-2.71 0-4.756 2.269-4.441 5.08l.407 6.236a4.259 4.259 0 0 0 4.226 3.704h2.052c2.14 0 3.947-1.58 4.226-3.704l.39-6.236a4.484 4.484 0 0 0-4.44-5.08Z"/><path fill="#fff" d="M11.925 14.964a1.521 1.521 0 0 1 2.966.075.25.25 0 0 1-.247.294h-2.425a.299.299 0 0 1-.294-.369ZM20.075 14.964a1.526 1.526 0 0 0-1.475-1.147c-.743 0-1.353.524-1.491 1.222a.25.25 0 0 0 .247.294h2.425c.196 0 .34-.178.294-.369Z"/><path fill="#7D4533" d="M12.65 15.075a.97.97 0 1 1 1.907.258h-1.872a.966.966 0 0 1-.034-.258ZM19.349 15.075a.97.97 0 0 0-.973-.971.962.962 0 0 0-.968.97c0 .093.012.179.035.26h1.871a.966.966 0 0 0 .035-.26Z"/><path fill="#000" d="M13.624 14.523a.552.552 0 0 1 .49.81h-.98a.552.552 0 0 1 .49-.81ZM18.37 14.523a.552.552 0 0 0-.49.81h.98a.552.552 0 0 0-.49-.81Z"/><path fill="#fff" d="M13.463 14.703a.174.174 0 0 1-.173.175.174.174 0 0 1-.172-.175c0-.096.077-.175.172-.175.096 0 .173.079.173.175ZM18.243 14.703a.174.174 0 0 1-.173.175.174.174 0 0 1-.172-.175c0-.096.077-.175.172-.175.096 0 .173.079.173.175Z"/><path fill="#AB6A55" d="m15.584 15.057-.578 1.849c-.118.38.165.76.566.76h.856a.588.588 0 0 0 .566-.76l-.578-1.849c-.124-.41-.702-.41-.832 0Z"/><path fill="#990838" d="M16 18.772c-.552 0-1.07-.13-1.507-.357-.149-.076-.309.092-.215.227.364.553.999.92 1.722.92a2.06 2.06 0 0 0 1.722-.92c.094-.14-.066-.303-.215-.227-.436.227-.95.357-1.507.357Z"/><path fill="#593B39" d="M21.28 8.398c.56.192 1.061.583 1.379 1.143.507.892.432 1.96-.116 2.747-.19.28-.294.613-.294.951v.657a1.74 1.74 0 0 0-.692-.286l.052-1.117a1.576 1.576 0 0 0-1.5-1.558h-1.523a2.634 2.634 0 0 1-2.405-1.57.722.722 0 0 0-.67-.454h-1.384c-2.007 0-3.634 1.645-3.634 3.675v1.016c-.276.04-.531.146-.75.3v-.663c0-.338-.103-.67-.294-.95a2.6 2.6 0 0 1-.155-2.66c.317-.602.83-1.022 1.413-1.226a2.916 2.916 0 0 0 1.505-1.207 2.53 2.53 0 0 1 3.144-.992c.415.181.882.181 1.298 0 .306-.128.64-.204.992-.204.917 0 1.719.496 2.163 1.23.335.555.86.957 1.471 1.168Z"/><path fill="#593B39" d="M20.1 12.917a.302.302 0 0 0-.053-.424l-.002-.001-.004-.003-.01-.007a2.143 2.143 0 0 0-.147-.097 3.017 3.017 0 0 0-1.891-.39.302.302 0 1 0 .074.598 2.414 2.414 0 0 1 1.508.31 1.488 1.488 0 0 1 .1.065l.002.002c.132.102.32.078.423-.053ZM12.498 12.97a.301.301 0 0 1-.37-.476l.001-.001.001-.001.003-.003.01-.007.033-.023a2.846 2.846 0 0 1 .532-.277c.356-.14.865-.262 1.474-.187a.302.302 0 1 1-.074.599 2.414 2.414 0 0 0-1.508.31 1.541 1.541 0 0 0-.1.064l-.002.002Z"/></svg>
